other/exifthumbnailadder.svg

<svg xmlns="http://www.w3.org/2000/svg" viewBox="0 0 48 48" version="1.1" id="svg8">
  <defs id="defs2">
    <style id="style1912">
    </style>
    <style id="style906">
    </style>
    <style id="style928">
    </style>
  </defs>
  <g id="layer1" transform="matrix(3.77029 0 0 3.77029 .0586872 .0822392)" opacity=".997" stroke-width=".2652319" stroke-miterlimit="4" stroke-dasharray="none" fill="none" stroke="#fff">
    <path id="rect1544" d="M1.6771028 2.5859149c-.1895688.1893878-.3147671.4425099-.344974.729174h1.0623263c.00641 0 .011165-.00558.011822-.011822V2.2409411c-.2861291.0305528-.5398738.1558543-.7291743.3449738z" stroke-width=".2652319" stroke-linecap="round" stroke-linejoin="round"/>
    <path id="rect1546" d="M1.3456543 5.8148905v3.4537943c.0031001.6719871.5416154 1.2123613 1.2128458 1.2185303h4.9769572l-2e-7-4.6723246z" stroke-width=".26522853849600003" stroke-linecap="round" stroke-linejoin="round" paint-order="stroke fill markers"/>
    <path id="path1563" d="M5.0765953 7.0489339l-1.129502 1.4436346-.5650161-.719065-1.1783884 1.4700396H3.5046888v0l1.7493861.00962H6.728488z" stroke-width=".2652319" stroke-linecap="round" stroke-linejoin="round"/>
    <rect id="rect1583-7" width="1.0983485" height="1.0983481" x="3.0983081" y="2.1992598" ry=".0123627" stroke-width=".2652319" stroke-linecap="round" stroke-linejoin="round"/>
    <rect id="rect1583-7-4" width="1.0983485" height="1.0983481" x="4.87745" y="2.1993258" ry=".0123627" stroke-width=".2652319" stroke-linecap="round" stroke-linejoin="round"/>
    <rect id="rect1583-7-5" width="1.0983486" height="1.0983481" x="6.6565928" y="2.1992598" ry=".0123627" stroke-width=".2652319" stroke-linecap="round" stroke-linejoin="round"/>
    <rect id="rect1583-7-9" width="1.098348" height="1.0983486" x="8.4122572" y="2.1992598" ry=".0123627" stroke-width=".2652319" stroke-linecap="round" stroke-linejoin="round"/>
    <rect id="rect1583-7-98" width="1.073391" height="1.0733914" x="4.0005217" y="-11.354012" ry=".0120818" transform="rotate(90)" stroke-width=".2652319" stroke-linecap="round" stroke-linejoin="round"/>
    <rect id="rect1583-7-4-8" width="1.073391" height="1.0733914" x="5.8148904" y="-11.354012" ry=".0120818" transform="rotate(90)" stroke-width=".2652319" stroke-linecap="round" stroke-linejoin="round"/>
    <rect id="rect1583-7-5-6" width="1.0781963" height="1.0365552" x="7.6268563" y="-11.356415" ry=".0116672" transform="rotate(90)" stroke-width=".2652319" stroke-linecap="round" stroke-linejoin="round"/>
    <path id="rect1544-5" d="M11.022897 2.5601488c-.189388-.1895688-.44251-.3147664-.729174-.3449722v1.0623253c0 .00645.0056.011168.01182.011822h1.062327c-.030549-.286129-.155854-.5398724-.344973-.7291751z" stroke-width=".2652319" stroke-linecap="round" stroke-linejoin="round"/>
    <path id="rect1544-5-9" d="M11.021935 10.143273c.189569-.1893875.314766-.4425091.344972-.7291732h-1.062325c-.0064 0-.01117.00561-.01182.011822v1.0623252c.28613-.03055.539873-.155855.729176-.344975z" stroke-width=".2652319" stroke-linecap="round" stroke-linejoin="round"/>
    <rect id="rect1583-7-98-3" width="1.073391" height="1.0733914" x="4.0005217" y="-2.4055219" ry=".0120818" transform="rotate(90)" stroke-width=".2652319" stroke-linecap="round" stroke-linejoin="round"/>
    <rect id="rect1583-7-9-8" width="1.098348" height="1.0983486" x="8.4122572" y="9.3887653" ry=".0123627" stroke-width=".2652319" stroke-linecap="round" stroke-linejoin="round"/>
    <path d="M2.4190456 5.8148902h4.0430199" id="path1253" stroke-width=".2652319" stroke-linecap="butt" stroke-linejoin="miter" stroke-opacity="1"/>
  </g>
</svg>

<?xml version="1.0" encoding="UTF-8" standalone="no"?>
<svg
   xmlns:dc="http://purl.org/dc/elements/1.1/"
   xmlns:cc="http://creativecommons.org/ns#"
   xmlns:rdf="http://www.w3.org/1999/02/22-rdf-syntax-ns#"
   xmlns:svg="http://www.w3.org/2000/svg"
   xmlns="http://www.w3.org/2000/svg"
   viewBox="0 0 48 48"
   version="1.1"
   id="svg8">
  <defs
     id="defs2">
    <style
       id="style1912">.a{fill:none;stroke:#fff;stroke-linecap:round;stroke-linejoin:round;}</style>
    <style
       id="style906">.a{fill:none;stroke:#fff;stroke-linecap:round;stroke-linejoin:round;}</style>
    <style
       id="style928">.a{fill:none;stroke:#fff;stroke-linecap:round;stroke-linejoin:round;}</style>
  </defs>
  <metadata
     id="metadata5">
    <rdf:RDF>
      <cc:Work
         rdf:about="">
        <dc:format>image/svg+xml</dc:format>
        <dc:type
           rdf:resource="http://purl.org/dc/dcmitype/StillImage" />
        <dc:title></dc:title>
      </cc:Work>
    </rdf:RDF>
  </metadata>
  <g
     id="layer1"
     transform="matrix(3.7702858,0,0,3.7702858,0.05868716,0.08223921)"
     style="opacity:0.997;stroke-width:0.26523188;stroke-miterlimit:4;stroke-dasharray:none">
    <path
       id="rect1544"
       style="fill:none;stroke:#ffffff;stroke-width:0.26523188;stroke-linecap:round;stroke-linejoin:round;stroke-miterlimit:4;stroke-dasharray:none"
       d="M 1.6771028,2.5859149 C 1.487534,2.7753027 1.3623357,3.0284248 1.3321288,3.3150889 h 1.0623263 c 0.00641,0 0.011165,-0.00558 0.011822,-0.011822 V 2.2409411 C 2.120148,2.2714939 1.8664033,2.3967954 1.6771028,2.5859149 Z" />
    <path
       id="rect1546"
       style="fill:none;stroke:#ffffff;stroke-width:1.00245122;stroke-linecap:round;stroke-linejoin:round;stroke-miterlimit:4;stroke-dasharray:none;paint-order:stroke fill markers"
       d="m 5.0859374,21.977539 1e-7,13.053711 c 0.011717,2.539794 2.0470506,4.582153 4.5839844,4.605469 H 28.480469 l -1e-6,-17.65918 z"
       transform="scale(0.26458333)" />
    <path
       id="path1563"
       style="fill:none;stroke:#ffffff;stroke-width:0.26523188;stroke-linecap:round;stroke-linejoin:round;stroke-miterlimit:4;stroke-dasharray:none"
       d="M 5.0765953,7.0489339 3.9470933,8.4925685 3.3820772,7.7735035 2.2036888,9.2435431 h 0.9765991 0.3244009 v 0 l 1.7493861,0.00962 H 6.728488 Z" />
    <rect
       style="fill:none;stroke:#ffffff;stroke-width:0.26523188;stroke-linecap:round;stroke-linejoin:round;stroke-miterlimit:4;stroke-dasharray:none"
       id="rect1583-7"
       width="1.0983485"
       height="1.0983481"
       x="3.0983081"
       y="2.1992598"
       ry="0.012362743" />
    <rect
       style="fill:none;stroke:#ffffff;stroke-width:0.26523188;stroke-linecap:round;stroke-linejoin:round;stroke-miterlimit:4;stroke-dasharray:none"
       id="rect1583-7-4"
       width="1.0983485"
       height="1.0983481"
       x="4.87745"
       y="2.1993258"
       ry="0.012362743" />
    <rect
       style="fill:none;stroke:#ffffff;stroke-width:0.26523188;stroke-linecap:round;stroke-linejoin:round;stroke-miterlimit:4;stroke-dasharray:none"
       id="rect1583-7-5"
       width="1.0983486"
       height="1.0983481"
       x="6.6565928"
       y="2.1992598"
       ry="0.012362743" />
    <rect
       style="fill:none;stroke:#ffffff;stroke-width:0.26523188;stroke-linecap:round;stroke-linejoin:round;stroke-miterlimit:4;stroke-dasharray:none"
       id="rect1583-7-9"
       width="1.098348"
       height="1.0983486"
       x="8.4122572"
       y="2.1992598"
       ry="0.012362747" />
    <rect
       style="fill:none;stroke:#ffffff;stroke-width:0.26523188;stroke-linecap:round;stroke-linejoin:round;stroke-miterlimit:4;stroke-dasharray:none"
       id="rect1583-7-98"
       width="1.073391"
       height="1.0733914"
       x="4.0005217"
       y="-11.354012"
       ry="0.012081834"
       transform="rotate(90)" />
    <rect
       style="fill:none;stroke:#ffffff;stroke-width:0.26523188;stroke-linecap:round;stroke-linejoin:round;stroke-miterlimit:4;stroke-dasharray:none"
       id="rect1583-7-4-8"
       width="1.073391"
       height="1.0733914"
       x="5.8148904"
       y="-11.354012"
       ry="0.012081834"
       transform="rotate(90)" />
    <rect
       style="fill:none;stroke:#ffffff;stroke-width:0.26523188;stroke-linecap:round;stroke-linejoin:round;stroke-miterlimit:4;stroke-dasharray:none"
       id="rect1583-7-5-6"
       width="1.0781963"
       height="1.0365552"
       x="7.6268563"
       y="-11.356415"
       ry="0.011667216"
       transform="rotate(90)" />
    <path
       id="rect1544-5"
       style="fill:none;stroke:#ffffff;stroke-width:0.26523188;stroke-linecap:round;stroke-linejoin:round;stroke-miterlimit:4;stroke-dasharray:none"
       d="M 11.022897,2.5601488 C 10.833509,2.37058 10.580387,2.2453824 10.293723,2.2151766 v 1.0623253 c 0,0.00645 0.0056,0.011168 0.01182,0.011822 H 11.36787 C 11.337321,3.0031949 11.212016,2.7494515 11.022897,2.5601488 Z" />
    <path
       id="rect1544-5-9"
       style="fill:none;stroke:#ffffff;stroke-width:0.26523188;stroke-linecap:round;stroke-linejoin:round;stroke-miterlimit:4;stroke-dasharray:none"
       d="m 11.021935,10.143273 c 0.189569,-0.1893875 0.314766,-0.4425091 0.344972,-0.7291732 h -1.062325 c -0.0064,0 -0.01117,0.00561 -0.01182,0.011822 v 1.0623252 c 0.28613,-0.03055 0.539873,-0.155855 0.729176,-0.344975 z" />
    <rect
       style="fill:none;stroke:#ffffff;stroke-width:0.26523188;stroke-linecap:round;stroke-linejoin:round;stroke-miterlimit:4;stroke-dasharray:none"
       id="rect1583-7-98-3"
       width="1.073391"
       height="1.0733914"
       x="4.0005217"
       y="-2.4055219"
       ry="0.012081834"
       transform="rotate(90)" />
    <rect
       style="fill:none;stroke:#ffffff;stroke-width:0.26523188;stroke-linecap:round;stroke-linejoin:round;stroke-miterlimit:4;stroke-dasharray:none"
       id="rect1583-7-9-8"
       width="1.098348"
       height="1.0983486"
       x="8.4122572"
       y="9.3887653"
       ry="0.012362747" />
    <path
       style="fill:none;stroke:#ffffff;stroke-width:0.26523188;stroke-linecap:butt;stroke-linejoin:miter;stroke-opacity:1;stroke-miterlimit:4;stroke-dasharray:none"
       d="M 2.4190456,5.8148902 H 6.4620655"
       id="path1253" />
  </g>
</svg>
